!!!OTL: 1351. Soldatenlied aus den Jahren 1813-1815.
!!!ARE: Europa, Mitteleuropa, Deutschland
!!!SCT: E1351
!!!TXL: @@DE
!!!YEM: Copyright 1995, estate of Helmut Schaffrath.
**kern	**text
*ICvox	*
*M2/4	*
*k[b-e-a-]	*
*E-:	*
!LO:TX:a:t=Marſchtakt.	!
!LO:TX:a:t=Alte Soldatenmel. "Kamerad, ich bin geſchoſſen".	!
{16e-L	Es
16gJ	.
=1	=1
8.b-	le-
16b-	-ben
8b-	die
8g	Sol-
=2	=2
8cc	-da-
8b-	-ten
8r}	.
{16e-L	ſo
16gJ	.
=3	=3
8.b-	recht
16b-	von
16ccL	Got-
16b-J	.
16a-L	-tes
16gJ	.
=4	=4
8g	Gna-
8f	-den
8r}	.
{16e-L	der
16gJ	.
=5	=5
8b-	Him-
8g	-mel
16a-L	iſt
16gJ	.
16a-L	ihr
16b-J	.
=6	=6
4g	Ʒelt,
8r}	.
{16ee-L	ihr
16ccJ	.
=7	=7
8.b-/	Tiſch
16g	das
16b-L	grü-
16a-J	.
16gL	-ne
16fJ	.
=8	=8
16e-}	Feld.
{16b-/	Tra
16b-/	la
16b-/	la
16b-L	la
16gJ	.
16a-L	la
16fJ	.
=9	=9
16e-	la.
16b-/	Tra
16b-/	la
16b-/	la
16b-L	la
16gJ}	.
{16ee-^L	ihr
16ccJ	.
=10	=10
8.b-^/	Tiſch
16g	das
16b-L	grü-
16a-J	.
16gL	-ne
16fJ	.
=11	=11
4e-	Feld.
8r}	.
==	==
!!!AGN: Staende -, Soldaten -, Kriegs - Lied
!!!ONB: ESAC (Essen Associative Code) Database: ERK3
!!!AMT: simple duple
!!!AIN: vox
!!!EED: Helmut Schaffrath
!!!EEV: 1.0
!!!GTL: Staendelieder (Berufslieder). 1. Soldaten- und Kriegslieder. Soldatenlieder seit dem 30jaehr. Kriege.
!!!URL-scan: https://rosdok.uni-rostock.de/mcrviewer/recordIdentifier/rosdok_ppn745177999/iview2/phys_0232.iview2?x=-128.77276441889285&y=84.38586791569833&scale=0.5870222003877487&rotation=0&layout=singlePageLayout
!!!ENC: Anna Maria Matuszewska
!!!EEV: 2024/12/30
*-	*-
